X: 352
T: Bir Böyle Güzel Âşıka
C: Fehmi Tokay
O: Turkey
F: http://compmusic.upf.edu/node/140
N: beyati--sarki--senginsemai--bir_boyle--fehmi_tokay
N: makam= beyati
N: form= sarki
N: usul= senginsemai = 6/4
M: 6/4
L: 1/16
K: C _2/4B   
Q: 1/4=66
%%MIDI tuningsystem comma53
c3d d4 d4 d2e2 d2c4B2  | c2d2 c2B2 c2d2 efed d8  | \
w:  Bir  *  böy le  gü *  zel   |  â *  *  *  şı *  ka  *  *  *  bil  | 
e2f2 f3e a2gf e2d2 d2cB c2d2  | 
w:  mem  *  *  *  ne *  *  ler  *  ey  | 
d8 f4 e2{a}gf f4 z4  | g3f f3e e3d d4 d2{f}ed c2B2  | \
w:  ler    |  Nâ *  çâr  *  se *  vi lir   | 
c2d2 c2B2 ^A2_1/4B2 c3/2d/cB B8  | 
w:  ol *  *  *  sa  *  da *  *  *  hi   | 
e2f2 f3e e3d d3c c3B BABA  | A8 f4 e2{a}gf f8  | \
w:  cevr_ *  *  *  ü  *  ce *  fâ  |  kâr   SAZ  | 
g3f f3e e3d d4 d2{f}ed c2B2  | 
w:  Nâ *  çâr  *  se *  vi lir   | 
c2d2 c2B2 ^A2_1/4B2 c3/2d/cB B8  | \
w:  ol *  *  *  sa  *  da *  *  *  hi   | 
e2f2 f3e e3d d3c c3B BABA  | 
w:  cevr_ *  *  *  ü  *  ce *  fâ  | 
A8 g4 ^f2{_b}ag g4 z4  | g4 g4 ^f2g2 a3/2_b/ag g6z2  | \
w:  kâr   SAZ  |  Â lem  o *  la *  *  *  lı   | 
a3g g3^f f3e =f3e d6z2  | 
w:  gel *  *  *  me *  di  *  bu   | 
gff4fe e3d d4 c4 B3d  | d8 f4 e2{a}gf f4 z4  | \
w:  dil *  *  *  *  be *  re  ben  |  zer    | 
g3f f3e e3d d4 d2{f}ed c2B2  | 
w:  Mâ *  zur  *  o *  lur  el  | 
c2d2 c2_1/4B2 ^A2B2 c3/2d/cB B6z2  | \
w:  bet  *  *  *  de  *  dü *  *  *  şen   | 
e2f2 f3e e3d d3c c3B BA{c}BA  | 
w:  aş *  *  *  kı *  na  *  hay  | 
A8 G2A2 B2c2 d4 z4  | e2de dc2d cB2c B2A2 B2c2 B2A2  | 
w:  der  SAZ  |  ta *  *  yip  *  *  e *  *  de *  mez  | 
A16-A4 z4  | |


